public/logos/OA.svg

<?xml version="1.0" encoding="UTF-8"?>
<svg xmlns="http://www.w3.org/2000/svg" xmlns:xlink="http://www.w3.org/1999/xlink" width="176pt" height="47.59pt" viewBox="0 0 176 47.59" version="1.1">
<defs>
<clipPath id="clip1">
  <path d="M 0 34 L 16 34 L 16 47.589844 L 0 47.589844 Z M 0 34 "/>
</clipPath>
</defs>
<g id="surface1">
<path style=" stroke:none;fill-rule:nonzero;fill:rgb(12.866211%,11.170959%,11.180115%);fill-opacity:1;" d="M 8.121094 16.328125 C 6.429688 16.328125 4.855469 15.804688 3.554688 14.921875 C 4.0625 14.300781 4.683594 13.792969 5.398438 13.417969 C 6.226562 13.847656 7.144531 14.09375 8.121094 14.09375 C 9.097656 14.09375 10.019531 13.847656 10.847656 13.417969 C 11.558594 13.792969 12.179688 14.300781 12.6875 14.921875 C 11.390625 15.804688 9.8125 16.328125 8.121094 16.328125 "/>
<path style=" stroke:none;fill-rule:nonzero;fill:rgb(97.483826%,91.017151%,2.378845%);fill-opacity:1;" d="M 1.886719 13.417969 C 0.683594 12.007812 -0.03125 10.167969 -0.03125 8.15625 C -0.03125 3.667969 3.632812 0.00390625 8.121094 0.00390625 C 12.613281 0.00390625 16.277344 3.667969 16.277344 8.15625 C 16.277344 10.167969 15.5625 12.007812 14.359375 13.417969 C 13.871094 14 13.308594 14.488281 12.6875 14.921875 C 12.179688 14.300781 11.558594 13.792969 10.847656 13.417969 C 11.785156 12.929688 12.59375 12.195312 13.15625 11.292969 C 13.71875 10.375 14.039062 9.304688 14.039062 8.15625 C 14.039062 4.90625 11.390625 2.238281 8.121094 2.238281 C 4.855469 2.238281 2.203125 4.90625 2.203125 8.15625 C 2.203125 9.585938 2.710938 10.898438 3.554688 11.933594 C 2.9375 12.347656 2.375 12.855469 1.886719 13.417969 "/>
<path style=" stroke:none;fill-rule:nonzero;fill:rgb(29.875183%,69.023132%,90.602112%);fill-opacity:1;" d="M 17.234375 31.886719 C 16.765625 31.886719 16.277344 31.847656 15.804688 31.773438 C 16.050781 31.097656 16.21875 30.363281 16.257812 29.59375 C 16.578125 29.648438 16.914062 29.667969 17.234375 29.667969 C 20.503906 29.667969 23.167969 27.019531 23.167969 23.75 C 23.167969 20.5 20.503906 17.832031 17.234375 17.832031 C 14.699219 17.832031 12.519531 19.449219 11.671875 21.722656 C 11.015625 21.402344 10.300781 21.15625 9.550781 21.027344 C 10.675781 17.871094 13.703125 15.597656 17.234375 15.597656 C 21.742188 15.597656 25.40625 19.261719 25.40625 23.75 C 25.40625 28.238281 21.742188 31.886719 17.234375 31.886719 "/>
<g clip-path="url(#clip1)" clip-rule="nonzero">
<path style=" stroke:none;fill-rule:nonzero;fill:rgb(29.875183%,69.023132%,90.602112%);fill-opacity:1;" d="M 8.121094 47.589844 C 3.632812 47.589844 -0.03125 43.910156 -0.03125 39.417969 C -0.03125 37.445312 0.664062 35.644531 1.828125 34.234375 C 2.316406 34.816406 2.863281 35.324219 3.480469 35.753906 C 2.675781 36.769531 2.203125 38.046875 2.203125 39.417969 C 2.203125 42.6875 4.855469 45.335938 8.121094 45.335938 C 10.621094 45.335938 12.761719 43.796875 13.628906 41.597656 C 14.285156 41.917969 14.996094 42.164062 15.75 42.3125 C 14.585938 45.394531 11.597656 47.589844 8.121094 47.589844 "/>
</g>
<path style=" stroke:none;fill-rule:nonzero;fill:rgb(92.58728%,11.372375%,15.159607%);fill-opacity:1;" d="M 4.382812 33.632812 C 4.664062 33.859375 4.949219 34.066406 5.265625 34.234375 C 4.949219 34.402344 4.664062 34.609375 4.382812 34.835938 Z M 4.382812 23.261719 L 4.382812 21.816406 C 5.511719 21.234375 6.769531 20.914062 8.121094 20.914062 C 9.851562 20.914062 11.449219 21.4375 12.761719 22.359375 C 13.382812 22.792969 13.925781 23.300781 14.414062 23.863281 C 14.996094 24.578125 15.46875 25.386719 15.785156 26.269531 C 15.035156 26.398438 14.320312 26.644531 13.664062 26.980469 C 13.4375 26.398438 13.136719 25.855469 12.761719 25.386719 C 12.742188 25.367188 12.726562 25.347656 12.707031 25.328125 C 12.6875 25.308594 12.6875 25.289062 12.667969 25.289062 C 12.648438 25.253906 12.632812 25.234375 12.613281 25.214844 C 12.59375 25.195312 12.59375 25.179688 12.574219 25.179688 C 12.554688 25.160156 12.535156 25.121094 12.519531 25.101562 C 12.5 25.085938 12.5 25.085938 12.480469 25.066406 C 12.460938 25.046875 12.445312 25.027344 12.425781 25.007812 C 12.40625 24.992188 12.386719 24.972656 12.386719 24.953125 C 12.367188 24.933594 12.347656 24.933594 12.332031 24.914062 C 12.3125 24.894531 12.292969 24.878906 12.273438 24.839844 C 12.253906 24.839844 12.253906 24.839844 12.253906 24.820312 C 12.21875 24.800781 12.199219 24.765625 12.160156 24.746094 L 12.144531 24.726562 C 12.105469 24.691406 12.085938 24.671875 12.046875 24.632812 C 12.011719 24.597656 11.972656 24.578125 11.933594 24.539062 C 10.902344 23.675781 9.570312 23.148438 8.121094 23.148438 C 7.089844 23.148438 6.132812 23.410156 5.285156 23.863281 C 4.964844 23.695312 4.664062 23.488281 4.382812 23.261719 Z M 3.480469 35.753906 C 1.359375 34.269531 -0.03125 31.808594 -0.03125 29.066406 C -0.03125 27.09375 0.664062 25.289062 1.828125 23.863281 C 2.316406 24.445312 2.863281 24.953125 3.480469 25.386719 C 2.675781 26.398438 2.203125 27.675781 2.203125 29.066406 C 2.203125 30.910156 3.050781 32.542969 4.382812 33.632812 L 4.382812 34.835938 C 4.042969 35.117188 3.746094 35.417969 3.480469 35.753906 Z M 4.382812 21.816406 L 4.382812 23.261719 C 4.042969 23 3.746094 22.699219 3.480469 22.359375 C 3.761719 22.152344 4.0625 21.984375 4.382812 21.816406 "/>
<path style=" stroke:none;fill-rule:nonzero;fill:rgb(97.483826%,91.017151%,2.378845%);fill-opacity:1;" d="M 3.480469 32.710938 C 4.796875 31.808594 6.394531 31.265625 8.121094 31.265625 C 12.613281 31.265625 16.277344 34.929688 16.277344 39.417969 C 16.277344 39.664062 16.277344 39.886719 16.257812 40.113281 C 15.449219 39.984375 14.699219 39.683594 14.039062 39.269531 C 13.945312 36.074219 11.335938 33.5 8.121094 33.5 C 7.089844 33.5 6.113281 33.765625 5.265625 34.234375 C 4.570312 33.859375 3.96875 33.332031 3.480469 32.710938 "/>
<path style=" stroke:none;fill-rule:nonzero;fill:rgb(29.875183%,69.023132%,90.602112%);fill-opacity:1;" d="M 8.121094 26.832031 C 3.632812 26.832031 -0.03125 23.167969 -0.03125 18.679688 C -0.03125 14.1875 3.632812 10.523438 8.121094 10.523438 C 9.8125 10.523438 11.390625 11.03125 12.6875 11.933594 C 12.179688 12.535156 11.558594 13.042969 10.847656 13.417969 C 10.019531 13.003906 9.097656 12.761719 8.121094 12.761719 C 4.855469 12.761719 2.203125 15.410156 2.203125 18.679688 C 2.203125 21.945312 4.855469 24.597656 8.121094 24.597656 C 9.15625 24.597656 10.113281 24.332031 10.960938 23.863281 C 11.65625 24.257812 12.273438 24.765625 12.761719 25.386719 C 11.449219 26.304688 9.851562 26.832031 8.121094 26.832031 "/>
<path style=" stroke:none;fill-rule:nonzero;fill:rgb(12.866211%,11.170959%,11.180115%);fill-opacity:1;" d="M 16.238281 17.90625 C 16.277344 18.171875 16.277344 18.414062 16.277344 18.679688 C 16.277344 20.652344 15.582031 22.453125 14.414062 23.863281 C 13.925781 23.300781 13.382812 22.792969 12.761719 22.359375 C 13.550781 21.363281 14.019531 20.125 14.039062 18.773438 C 14.699219 18.359375 15.449219 18.058594 16.238281 17.90625 "/>
<path style=" stroke:none;fill-rule:nonzero;fill:rgb(92.58728%,11.372375%,15.159607%);fill-opacity:1;" d="M 17.234375 42.445312 C 12.742188 42.445312 9.082031 38.78125 9.082031 34.289062 C 9.082031 34.046875 9.097656 33.820312 9.117188 33.578125 C 9.90625 33.726562 10.65625 34.027344 11.316406 34.441406 C 11.371094 36.46875 12.445312 38.234375 14.039062 39.269531 C 14.058594 39.269531 14.058594 39.269531 14.078125 39.269531 C 14.097656 39.304688 14.132812 39.324219 14.171875 39.34375 C 14.171875 39.34375 14.171875 39.34375 14.191406 39.34375 C 14.226562 39.363281 14.246094 39.382812 14.285156 39.402344 C 14.304688 39.417969 14.304688 39.417969 14.320312 39.417969 C 14.339844 39.4375 14.378906 39.457031 14.414062 39.476562 L 14.433594 39.492188 C 14.472656 39.511719 14.511719 39.53125 14.527344 39.550781 C 14.546875 39.550781 14.566406 39.550781 14.566406 39.570312 C 14.601562 39.589844 14.640625 39.589844 14.660156 39.605469 C 14.679688 39.605469 14.679688 39.625 14.699219 39.625 C 14.734375 39.644531 14.753906 39.664062 14.792969 39.683594 C 14.808594 39.683594 14.808594 39.683594 14.828125 39.683594 C 14.867188 39.703125 14.886719 39.71875 14.921875 39.738281 C 14.941406 39.738281 14.941406 39.738281 14.960938 39.738281 C 14.996094 39.757812 15.015625 39.777344 15.054688 39.792969 C 15.074219 39.792969 15.074219 39.792969 15.09375 39.792969 C 15.128906 39.8125 15.167969 39.832031 15.1875 39.832031 C 15.207031 39.851562 15.222656 39.851562 15.222656 39.851562 C 15.261719 39.871094 15.296875 39.871094 15.335938 39.886719 C 15.335938 39.886719 15.355469 39.886719 15.375 39.90625 C 15.394531 39.90625 15.429688 39.925781 15.46875 39.925781 C 15.484375 39.925781 15.484375 39.945312 15.503906 39.945312 C 15.542969 39.945312 15.5625 39.964844 15.597656 39.964844 C 15.617188 39.984375 15.636719 39.984375 15.65625 39.984375 C 15.675781 40.003906 15.710938 40.003906 15.75 40.019531 C 15.769531 40.019531 15.769531 40.019531 15.785156 40.019531 C 15.824219 40.039062 15.863281 40.039062 15.882812 40.039062 C 15.898438 40.058594 15.917969 40.058594 15.9375 40.058594 C 15.957031 40.058594 15.992188 40.078125 16.03125 40.078125 C 16.050781 40.078125 16.050781 40.078125 16.070312 40.09375 C 16.105469 40.09375 16.144531 40.09375 16.183594 40.113281 C 16.183594 40.113281 16.199219 40.113281 16.21875 40.113281 C 16.21875 40.113281 16.238281 40.113281 16.257812 40.113281 C 16.578125 40.171875 16.914062 40.207031 17.234375 40.207031 C 19.976562 40.207031 22.285156 38.328125 22.964844 35.8125 L 25.125 36.394531 C 24.183594 39.871094 21.011719 42.445312 17.234375 42.445312 "/>
<path style=" stroke:none;fill-rule:nonzero;fill:rgb(12.866211%,11.170959%,11.180115%);fill-opacity:1;" d="M 9.605469 31.398438 C 10.769531 28.335938 13.757812 26.136719 17.234375 26.136719 C 21.742188 26.136719 25.40625 29.800781 25.40625 34.289062 C 25.40625 35.003906 25.3125 35.71875 25.125 36.394531 L 22.964844 35.8125 C 23.09375 35.324219 23.167969 34.816406 23.167969 34.289062 C 23.167969 31.039062 20.503906 28.371094 17.234375 28.371094 C 14.753906 28.371094 12.613281 29.929688 11.730469 32.109375 C 11.070312 31.773438 10.355469 31.546875 9.605469 31.398438 "/>
<path style=" stroke:none;fill-rule:nonzero;fill:rgb(13.95874%,22.80426%,44.396973%);fill-opacity:1;" d="M 134.257812 31.621094 L 134.257812 28.765625 C 136.660156 28.617188 136.625 25.609375 135.363281 25.609375 L 134.257812 25.609375 L 134.257812 23.054688 L 139.554688 23.054688 C 145.246094 23.035156 144.984375 31.621094 136.058594 31.621094 Z M 151.914062 38.253906 C 152.761719 36.226562 157.269531 37.109375 158.398438 37.484375 L 158.019531 38.386719 C 157.421875 38.066406 156.59375 37.878906 155.972656 37.878906 C 155.597656 37.878906 155.277344 37.992188 155.222656 38.160156 C 155.148438 38.308594 155.390625 38.441406 155.765625 38.441406 C 158.492188 38.761719 159.28125 43.175781 150.808594 41.015625 L 151.257812 40.003906 C 151.878906 40.320312 152.855469 40.679688 153.585938 40.679688 C 153.964844 40.679688 154.171875 40.585938 154.246094 40.414062 C 154.320312 40.246094 154.226562 40.09375 153.851562 40.09375 C 152.984375 40.09375 151.539062 39.191406 151.914062 38.253906 Z M 138.238281 37.089844 L 143.367188 37.089844 L 143.03125 37.933594 L 140.945312 37.933594 L 140.511719 39.007812 L 142.578125 39.007812 L 142.351562 39.570312 L 140.269531 39.570312 L 139.890625 40.507812 L 141.976562 40.507812 L 141.546875 41.542969 L 136.433594 41.542969 Z M 162.097656 24.125 L 159.785156 23.054688 L 165.066406 23.054688 C 166.476562 22.699219 167.960938 22.492188 169.480469 22.492188 C 172.1875 22.492188 174.460938 23.128906 176 24.164062 L 175.136719 26.285156 C 174.289062 25.761719 172.917969 25.441406 171.511719 25.441406 C 168.484375 25.441406 165.59375 26.945312 165.066406 28.785156 C 164.523438 30.625 166.570312 32.09375 169.59375 32.09375 C 170.703125 32.09375 171.980469 31.90625 172.976562 31.546875 L 172.019531 33.859375 C 170.15625 34.554688 168.035156 34.964844 165.875 34.964844 C 160.21875 34.964844 156.40625 32.148438 157.402344 28.730469 C 157.925781 26.90625 159.695312 25.273438 162.097656 24.125 Z M 151.632812 34.742188 L 156.421875 23.054688 L 144.007812 23.054688 L 147.652344 24.746094 L 143.554688 34.742188 Z M 134.257812 23.054688 L 134.257812 25.609375 L 133.597656 25.609375 L 132.300781 28.765625 L 134.070312 28.765625 C 134.125 28.765625 134.179688 28.765625 134.257812 28.765625 L 134.257812 31.621094 L 131.082031 31.621094 L 129.804688 34.742188 L 121.707031 34.742188 L 125.800781 24.746094 L 122.15625 23.054688 Z M 83.34375 41.542969 L 83.34375 39.289062 C 84.246094 39.230469 84.246094 38.105469 83.757812 38.105469 L 83.34375 38.105469 L 83.34375 37.089844 L 84.601562 37.089844 C 86.988281 37.109375 86.6875 39.757812 84.488281 40.339844 L 85.128906 41.542969 Z M 83.34375 34.742188 L 83.34375 25.140625 L 84.320312 27.394531 L 87.890625 24.425781 L 84.921875 23.054688 L 93.941406 23.054688 L 85.691406 30.53125 L 83.964844 34.742188 Z M 126.515625 37.089844 L 128.882812 37.089844 L 127.058594 41.542969 L 124.695312 41.542969 L 123.980469 38.800781 L 122.851562 41.542969 L 120.484375 41.542969 L 122.308594 37.089844 L 124.675781 37.089844 L 125.371094 39.871094 Z M 95.199219 37.089844 L 98.242188 37.089844 L 96.851562 40.507812 L 98.9375 40.507812 L 98.503906 41.542969 L 93.394531 41.542969 Z M 108.988281 37.089844 L 112.03125 37.089844 L 110.207031 41.542969 L 107.164062 41.542969 Z M 116.277344 34.742188 L 108.199219 34.742188 L 109.757812 30.925781 L 105.304688 34.742188 L 103.839844 30.796875 L 102.222656 34.742188 L 94.128906 34.742188 L 98.242188 24.746094 L 94.597656 23.054688 L 106.863281 23.054688 L 108.386719 27.207031 L 111.617188 24.425781 L 108.648438 23.054688 L 121.066406 23.054688 Z M 70.175781 34.742188 L 56.046875 34.742188 L 60.144531 24.746094 L 56.496094 23.054688 L 68.914062 23.054688 L 65.402344 31.621094 L 71.453125 31.621094 Z M 83.34375 25.140625 L 83.34375 34.742188 L 75.886719 34.742188 L 77.613281 30.53125 L 75.097656 24.746094 L 71.453125 23.054688 L 82.441406 23.054688 Z M 83.34375 37.089844 L 83.34375 38.105469 L 83.097656 38.105469 L 82.613281 39.289062 L 83.289062 39.289062 C 83.304688 39.289062 83.324219 39.289062 83.34375 39.289062 L 83.34375 41.542969 L 82.648438 41.542969 L 82.105469 40.527344 L 81.671875 41.542969 L 78.648438 41.542969 L 80.433594 37.089844 Z M 54.242188 40.828125 L 54.242188 39.777344 L 54.882812 39.777344 L 54.695312 38.253906 L 54.242188 38.875 L 54.242188 37.089844 L 57.585938 37.089844 L 58.171875 41.542969 L 55.125 41.542969 L 55.03125 40.828125 Z M 54.242188 29.460938 L 54.242188 26.679688 C 54.527344 27.414062 54.582031 28.203125 54.375 29.046875 C 54.335938 29.179688 54.28125 29.328125 54.242188 29.460938 Z M 68.277344 37.089844 L 71.320312 37.089844 L 69.515625 41.542969 L 66.472656 41.542969 Z M 54.242188 26.679688 L 54.242188 29.460938 C 53.152344 32.390625 48.964844 34.816406 44.230469 35.265625 L 44.230469 32.109375 C 45.09375 31.492188 45.941406 30.382812 46.410156 29.085938 C 47.105469 27.152344 46.691406 25.554688 45.488281 25.554688 C 45.09375 25.554688 44.660156 25.742188 44.230469 26.042969 L 44.230469 22.792969 C 44.757812 22.734375 45.28125 22.71875 45.828125 22.71875 C 50.09375 22.71875 53.324219 24.351562 54.242188 26.679688 Z M 54.242188 37.089844 L 54.242188 38.875 L 53.585938 39.777344 L 54.242188 39.777344 L 54.242188 40.828125 L 52.816406 40.828125 L 52.308594 41.542969 L 50.730469 41.542969 L 53.941406 37.089844 Z M 44.230469 22.792969 L 44.230469 26.042969 C 43.367188 26.644531 42.5 27.789062 42.050781 29.085938 C 41.335938 31.023438 41.75 32.601562 42.953125 32.601562 C 43.347656 32.601562 43.796875 32.410156 44.230469 32.109375 L 44.230469 35.265625 C 43.683594 35.324219 43.121094 35.363281 42.578125 35.363281 C 37.65625 35.363281 34.085938 33.164062 33.917969 30.269531 L 33.917969 29.816406 C 33.917969 29.554688 33.972656 29.3125 34.027344 29.046875 C 34.535156 27.113281 36.378906 25.386719 38.875 24.21875 L 36.359375 23.054688 L 42.445312 23.054688 C 43.027344 22.941406 43.628906 22.847656 44.230469 22.792969 "/>
</g>
</svg>

<svg xmlns="http://www.w3.org/2000/svg" width="176pt" height="63.453" viewBox="0 0 176 47.59"><defs><clipPath id="a"><path d="M0 34h16v13.59H0Zm0 0"/></clipPath></defs><path d="M8.121 16.328a8.1 8.1 0 0 1-4.566-1.406 5.9 5.9 0 0 1 1.843-1.504c.829.43 1.747.676 2.723.676.977 0 1.899-.246 2.727-.676.71.375 1.332.883 1.84 1.504a8.1 8.1 0 0 1-4.567 1.406" style="stroke:none;fill-rule:nonzero;fill:#211c1d;fill-opacity:1"/><path d="M1.887 13.418A8.07 8.07 0 0 1-.031 8.156C-.031 3.668 3.633.004 8.12.004c4.492 0 8.156 3.664 8.156 8.152a8.07 8.07 0 0 1-1.918 5.262 8.5 8.5 0 0 1-1.671 1.504 6 6 0 0 0-1.84-1.504 6 6 0 0 0 2.308-2.125 5.97 5.97 0 0 0 .883-3.137c0-3.25-2.648-5.918-5.918-5.918-3.266 0-5.918 2.668-5.918 5.918 0 1.43.508 2.742 1.352 3.778a8.5 8.5 0 0 0-1.668 1.484" style="stroke:none;fill-rule:nonzero;fill:#f9e806;fill-opacity:1"/><path d="M17.234 31.887a9 9 0 0 1-1.43-.114c.247-.675.415-1.41.454-2.18.32.055.656.075.976.075 3.27 0 5.934-2.648 5.934-5.918 0-3.25-2.664-5.918-5.934-5.918-2.535 0-4.714 1.617-5.562 3.89a8 8 0 0 0-2.121-.695c1.125-3.156 4.152-5.43 7.683-5.43 4.508 0 8.172 3.665 8.172 8.153s-3.664 8.137-8.172 8.137" style="stroke:none;fill-rule:nonzero;fill:#4cb0e7;fill-opacity:1"/><g clip-path="url(#a)"><path d="M8.121 47.59c-4.488 0-8.152-3.68-8.152-8.172 0-1.973.695-3.773 1.86-5.184a8.5 8.5 0 0 0 1.651 1.52 5.9 5.9 0 0 0-1.277 3.664 5.92 5.92 0 0 0 5.918 5.918c2.5 0 4.64-1.54 5.508-3.738a8.6 8.6 0 0 0 2.121.715c-1.164 3.082-4.152 5.277-7.629 5.277" style="stroke:none;fill-rule:nonzero;fill:#4cb0e7;fill-opacity:1"/></g><path d="M4.383 33.633c.281.226.566.433.883.601a5.6 5.6 0 0 0-.883.602Zm0-10.371v-1.446a8.1 8.1 0 0 1 3.738-.902c1.73 0 3.328.523 4.64 1.445a9 9 0 0 1 1.653 1.504 8.2 8.2 0 0 1 1.371 2.407 7.4 7.4 0 0 0-2.12.71 6 6 0 0 0-.903-1.593c-.02-.02-.035-.04-.055-.059-.02-.02-.02-.039-.039-.039a.3.3 0 0 0-.055-.074c-.02-.02-.02-.035-.039-.035-.02-.02-.039-.059-.054-.078-.02-.016-.02-.016-.04-.036s-.035-.039-.054-.058c-.02-.016-.04-.035-.04-.055-.019-.02-.038-.02-.054-.039-.02-.02-.039-.035-.059-.074-.02 0-.02 0-.02-.02-.034-.02-.054-.054-.093-.074l-.015-.02c-.04-.035-.06-.054-.098-.093-.035-.035-.074-.055-.113-.094a5.93 5.93 0 0 0-3.813-1.39 6 6 0 0 0-2.836.714 5.6 5.6 0 0 1-.902-.601M3.48 35.754C1.36 34.27-.03 31.809-.03 29.066c0-1.972.695-3.777 1.86-5.203a8.6 8.6 0 0 0 1.651 1.524 5.88 5.88 0 0 0-1.277 3.68c0 1.843.848 3.476 2.18 4.566v1.203c-.34.281-.637.582-.903.918m.903-13.938v1.446a5 5 0 0 1-.903-.903c.282-.207.583-.375.903-.543" style="stroke:none;fill-rule:nonzero;fill:#ec1d27;fill-opacity:1"/><path d="M3.48 32.71a8.2 8.2 0 0 1 4.641-1.444c4.492 0 8.156 3.664 8.156 8.152 0 .246 0 .469-.02.695a5.9 5.9 0 0 1-2.218-.843c-.094-3.196-2.703-5.77-5.918-5.77a5.9 5.9 0 0 0-2.855.734 5.8 5.8 0 0 1-1.786-1.523" style="stroke:none;fill-rule:nonzero;fill:#f9e806;fill-opacity:1"/><path d="M8.121 26.832c-4.488 0-8.152-3.664-8.152-8.152 0-4.492 3.664-8.157 8.152-8.157 1.691 0 3.27.508 4.567 1.41a6.2 6.2 0 0 1-1.84 1.485 6.1 6.1 0 0 0-2.727-.656 5.92 5.92 0 0 0-5.918 5.918 5.92 5.92 0 0 0 5.918 5.918 5.8 5.8 0 0 0 2.84-.735 6.1 6.1 0 0 1 1.8 1.524 8.05 8.05 0 0 1-4.64 1.445" style="stroke:none;fill-rule:nonzero;fill:#4cb0e7;fill-opacity:1"/><path d="M16.238 17.906c.04.266.04.508.04.774a8.08 8.08 0 0 1-1.864 5.183 9 9 0 0 0-1.652-1.504 5.88 5.88 0 0 0 1.277-3.586 6.5 6.5 0 0 1 2.2-.867" style="stroke:none;fill-rule:nonzero;fill:#211c1d;fill-opacity:1"/><path d="M17.234 42.445c-4.492 0-8.152-3.664-8.152-8.156 0-.242.016-.469.035-.71.79.148 1.54.448 2.2.862a5.94 5.94 0 0 0 2.722 4.829h.04c.019.035.054.054.093.074h.02c.035.02.054.039.093.058.02.016.02.016.035.016.02.02.059.039.094.059l.02.015c.039.02.078.04.093.059.02 0 .04 0 .04.02.035.019.074.019.093.034.02 0 .02.02.04.02.034.02.054.04.093.059h.035c.04.02.059.035.094.054h.039c.035.02.055.04.094.055h.039a.3.3 0 0 0 .094.039c.019.02.035.02.035.02.039.02.074.02.113.035 0 0 .02 0 .039.02.02 0 .055.019.094.019.015 0 .015.02.035.02.039 0 .059.019.094.019.02.02.039.02.058.02.02.019.055.019.094.035h.035c.04.02.078.02.098.02.015.019.035.019.055.019s.054.02.093.02c.02 0 .02 0 .04.015a.24.24 0 0 1 .113.02h.074c.32.058.656.093.976.093 2.743 0 5.051-1.879 5.73-4.395l2.161.583c-.941 3.476-4.113 6.05-7.89 6.05" style="stroke:none;fill-rule:nonzero;fill:#ec1d27;fill-opacity:1"/><path d="M9.605 31.398c1.165-3.062 4.153-5.261 7.63-5.261 4.507 0 8.171 3.664 8.171 8.152a8 8 0 0 1-.281 2.106l-2.16-.583c.129-.488.203-.996.203-1.523 0-3.25-2.664-5.918-5.934-5.918-2.48 0-4.62 1.559-5.504 3.738a8.2 8.2 0 0 0-2.125-.71" style="stroke:none;fill-rule:nonzero;fill:#211c1d;fill-opacity:1"/><path d="M134.258 31.621v-2.855c2.402-.149 2.367-3.157 1.105-3.157h-1.105v-2.554h5.297c5.691-.02 5.43 8.566-3.496 8.566Zm17.656 6.633c.848-2.027 5.356-1.145 6.484-.77l-.378.903c-.598-.32-1.426-.508-2.047-.508-.375 0-.696.113-.75.281-.075.149.168.281.543.281 2.726.32 3.515 4.735-4.957 2.575l.449-1.012c.62.316 1.597.676 2.328.676.379 0 .586-.094.66-.266.074-.168-.02-.32-.394-.32-.868 0-2.313-.903-1.938-1.84m-13.676-1.164h5.13l-.337.844h-2.086l-.433 1.074h2.066l-.226.562h-2.082l-.38.938h2.087l-.43 1.035h-5.113Zm23.86-12.965-2.313-1.07h5.281a18 18 0 0 1 4.414-.563c2.708 0 4.98.637 6.52 1.672l-.863 2.121c-.848-.523-2.219-.844-3.625-.844-3.028 0-5.918 1.504-6.446 3.344-.543 1.84 1.504 3.309 4.528 3.309 1.11 0 2.386-.188 3.383-.547l-.957 2.312a17.8 17.8 0 0 1-6.145 1.106c-5.656 0-9.469-2.817-8.473-6.235.524-1.824 2.293-3.457 4.696-4.605m-10.465 10.617 4.789-11.687h-12.414l3.644 1.691-4.097 9.996Zm-17.375-11.687v2.554h-.66l-1.297 3.157h1.957v2.855h-3.176l-1.277 3.121h-8.098l4.094-9.996-3.645-1.691ZM83.344 41.543v-2.254c.902-.059.902-1.184.414-1.184h-.414V37.09h1.258c2.386.02 2.085 2.668-.114 3.25l.64 1.203Zm0-6.8V25.14l.976 2.254 3.57-2.97-2.968-1.37h9.02l-8.25 7.476-1.727 4.211Zm43.172 2.347h2.367l-1.824 4.453h-2.364l-.715-2.742-1.128 2.742h-2.368l1.825-4.453h2.367l.695 2.781Zm-31.317 0h3.043l-1.39 3.418h2.085l-.433 1.035h-5.11Zm13.79 0h3.042l-1.824 4.453h-3.043Zm7.288-2.348H108.2l1.559-3.816-4.453 3.816-1.465-3.945-1.617 3.945h-8.094l4.113-9.996-3.644-1.691h12.265l1.524 4.152 3.23-2.781-2.969-1.371h12.418Zm-46.101 0h-14.13l4.099-9.996-3.649-1.691h12.418l-3.512 8.566h6.051Zm13.168-9.601v9.601h-7.457l1.726-4.21-2.515-5.786-3.645-1.691h10.988Zm0 11.949v1.015h-.246l-.485 1.184h.731v2.254h-.696l-.543-1.016-.433 1.016h-3.024l1.786-4.453Zm-29.102 3.738v-1.05h.64l-.187-1.524-.453.621V37.09h3.344l.586 4.453h-3.047l-.094-.715Zm0-11.367V26.68c.285.734.34 1.523.133 2.367-.04.133-.094.281-.133.414m14.035 7.629h3.043l-1.804 4.453h-3.043ZM54.242 26.68v2.78c-1.09 2.93-5.277 5.356-10.012 5.806v-3.157c.864-.617 1.711-1.726 2.18-3.023.695-1.934.281-3.531-.922-3.531-.394 0-.828.187-1.258.488v-3.25c.528-.059 1.051-.074 1.598-.074 4.266 0 7.496 1.633 8.414 3.96m0 10.41v1.785l-.656.902h.656v1.051h-1.426l-.507.715H50.73l3.211-4.453ZM44.23 22.793v3.25c-.863.602-1.73 1.746-2.18 3.043-.714 1.937-.3 3.516.903 3.516.395 0 .844-.192 1.277-.493v3.157c-.546.058-1.109.097-1.652.097-4.922 0-8.492-2.199-8.66-5.093v-.454c0-.261.055-.503.11-.77.507-1.933 2.35-3.66 4.847-4.827l-2.516-1.164h6.086a18 18 0 0 1 1.785-.262" style="stroke:none;fill-rule:nonzero;fill:#243a71;fill-opacity:1"/></svg>
